svg/aws-vpc.svg

<?xml version="1.0" encoding="UTF-8"?>
<svg xmlns="http://www.w3.org/2000/svg" xmlns:xlink="http://www.w3.org/1999/xlink" width="32" height="32" viewBox="0 0 32 32">
<path fill-rule="nonzero" fill="rgb(54.901961%, 30.980392%, 100%)" fill-opacity="1" d="M 0.203125 0.203125 L 31.796875 0.203125 L 31.796875 31.796875 L 0.203125 31.796875 Z M 0.203125 0.203125 "/>
<path fill-rule="nonzero" fill="rgb(100%, 100%, 100%)" fill-opacity="1" d="M 25.40625 17.070312 L 22.929688 16.082031 L 22.929688 25.058594 C 23.652344 24.984375 24.234375 24.746094 24.648438 24.324219 C 25.414062 23.550781 25.40625 22.40625 25.40625 22.398438 Z M 22.03125 25.0625 L 22.03125 16.082031 L 19.554688 17.070312 L 19.554688 22.386719 C 19.558594 22.480469 19.660156 24.796875 22.03125 25.0625 M 26.304688 22.386719 C 26.304688 22.441406 26.328125 23.894531 25.300781 24.949219 C 24.625 25.636719 23.675781 25.988281 22.480469 25.988281 C 19.523438 25.988281 18.6875 23.640625 18.65625 22.398438 L 18.65625 16.765625 C 18.65625 16.582031 18.765625 16.417969 18.941406 16.347656 L 22.316406 15 C 22.421875 14.953125 22.542969 14.953125 22.648438 15 L 26.019531 16.347656 C 26.191406 16.417969 26.304688 16.582031 26.304688 16.765625 Z M 27.652344 21.503906 L 27.652344 15.496094 L 22.480469 13.429688 L 17.308594 15.496094 L 17.308594 21.488281 C 17.304688 21.527344 17.246094 24.292969 18.894531 25.988281 C 19.765625 26.882812 20.96875 27.335938 22.480469 27.335938 C 24 27.335938 25.210938 26.878906 26.082031 25.980469 C 27.730469 24.277344 27.652344 21.53125 27.652344 21.503906 M 26.726562 26.605469 C 25.679688 27.691406 24.25 28.238281 22.480469 28.238281 C 20.714844 28.238281 19.292969 27.691406 18.25 26.613281 C 16.332031 24.636719 16.40625 21.601562 16.410156 21.476562 L 16.410156 15.191406 C 16.410156 15.007812 16.519531 14.84375 16.6875 14.773438 L 22.316406 12.523438 C 22.421875 12.480469 22.542969 12.480469 22.648438 12.523438 L 28.269531 14.773438 C 28.441406 14.839844 28.554688 15.003906 28.554688 15.191406 L 28.554688 21.488281 C 28.558594 21.601562 28.636719 24.625 26.726562 26.605469 M 8.335938 19.691406 L 15.054688 19.691406 L 15.054688 20.589844 L 8.335938 20.589844 C 5.601562 20.589844 3.511719 18.765625 3.375 16.253906 C 3.363281 16.152344 3.363281 16.03125 3.363281 15.914062 C 3.363281 12.824219 5.519531 11.6875 6.78125 11.285156 C 6.773438 11.140625 6.769531 10.992188 6.769531 10.847656 C 6.769531 8.398438 8.519531 5.828125 10.839844 4.878906 C 13.5625 3.761719 16.433594 4.300781 18.519531 6.324219 C 19.1875 6.960938 19.738281 7.714844 20.144531 8.542969 C 20.671875 8.082031 21.34375 7.828125 22.042969 7.824219 C 23.53125 7.824219 25.101562 8.992188 25.375 11.226562 C 26.351562 11.476562 27.589844 12.003906 28.457031 13.117188 L 27.746094 13.671875 C 26.949219 12.640625 25.738281 12.210938 24.863281 12.035156 C 24.664062 11.992188 24.519531 11.824219 24.507812 11.621094 C 24.390625 9.632812 23.144531 8.726562 22.042969 8.726562 C 21.386719 8.726562 20.804688 9.035156 20.359375 9.621094 C 20.261719 9.753906 20.097656 9.820312 19.933594 9.792969 C 19.773438 9.773438 19.632812 9.660156 19.578125 9.507812 C 19.230469 8.566406 18.679688 7.734375 17.890625 6.96875 C 16.074219 5.203125 13.5625 4.734375 11.179688 5.710938 C 9.179688 6.53125 7.667969 8.738281 7.667969 10.847656 C 7.667969 11.089844 7.683594 11.332031 7.710938 11.566406 C 7.734375 11.789062 7.589844 12 7.371094 12.054688 C 6.210938 12.34375 4.261719 13.226562 4.261719 15.914062 C 4.261719 16.003906 4.261719 16.097656 4.269531 16.1875 C 4.382812 18.222656 6.09375 19.691406 8.335938 19.691406 "/>
</svg>

<svg role="img" viewBox="0 0 32 32" xmlns="http://www.w3.org/2000/svg"><path d="M.203.203h31.594v31.594H.203Zm0 0" fill="rgb(54.901963%, 30.980393%, 100%)"/><path d="m25.406 17.07-2.476-.988v8.977c.722-.075 1.304-.313 1.718-.735.766-.773.758-1.918.758-1.926Zm-3.375 7.993v-8.981l-2.476.988v5.317c.004.093.105 2.41 2.476 2.675m4.274-2.675c0 .054.023 1.508-1.004 2.562-.676.688-1.625 1.04-2.82 1.04-2.958 0-3.794-2.348-3.825-3.59v-5.633c0-.184.11-.348.285-.418L22.316 15a.4.4 0 0 1 .332 0l3.372 1.348c.171.07.285.234.285.418Zm1.347-.883v-6.008L22.48 13.43l-5.171 2.066v5.992c-.004.04-.063 2.805 1.586 4.5.87.895 2.074 1.348 3.585 1.348 1.52 0 2.73-.457 3.602-1.356 1.648-1.703 1.57-4.449 1.57-4.476m-.925 5.101c-1.047 1.086-2.477 1.633-4.247 1.633-1.765 0-3.187-.547-4.23-1.625-1.918-1.976-1.844-5.011-1.84-5.136V15.19c0-.183.11-.347.277-.418l5.63-2.25a.44.44 0 0 1 .331 0l5.622 2.25c.171.067.285.23.285.418v6.297c.004.114.082 3.137-1.828 5.117M8.336 19.691h6.719v.899h-6.72c-2.733 0-4.823-1.824-4.96-4.336-.012-.102-.012-.223-.012-.34 0-3.09 2.157-4.226 3.418-4.629a8 8 0 0 1-.011-.437c0-2.45 1.75-5.02 4.07-5.97 2.723-1.116 5.594-.577 7.68 1.446a7.8 7.8 0 0 1 1.625 2.219 2.9 2.9 0 0 1 1.898-.719c1.488 0 3.059 1.168 3.332 3.403.977.25 2.215.777 3.082 1.89l-.71.555c-.798-1.031-2.009-1.461-2.884-1.637a.45.45 0 0 1-.355-.414c-.117-1.988-1.363-2.894-2.465-2.894-.656 0-1.238.308-1.684.894a.44.44 0 0 1-.425.172.44.44 0 0 1-.356-.285c-.348-.942-.898-1.774-1.687-2.54-1.817-1.765-4.328-2.234-6.711-1.257-2 .82-3.512 3.027-3.512 5.137q.001.365.043.718a.456.456 0 0 1-.34.489c-1.16.289-3.11 1.172-3.11 3.86 0 .089 0 .183.009.273.113 2.035 1.824 3.503 4.066 3.503" fill="rgb(100%, 100%, 100%)"/></svg>
